packages/ffe-icons/icons/filled/sm/commit.svg

<svg xmlns="http://www.w3.org/2000/svg" height="20" viewBox="0 -960 960 960" width="20"><path d="M480-298.001q-69.028 0-119.211-44.362-50.183-44.363-62.178-111.638h-156.61q-11.05 0-18.525-7.418-7.475-7.418-7.475-18.384 0-10.966 7.475-18.581t18.525-7.615h156.61q11.995-67.275 62.178-111.638Q410.972-661.999 480-661.999q69.028 0 119.404 44.362 50.375 44.363 61.985 111.638h156.61q11.05 0 18.525 7.418 7.475 7.418 7.475 18.384 0 10.966-7.475 18.581t-18.525 7.615h-156.61q-11.61 67.275-61.985 111.638Q549.028-298.001 480-298.001Zm0-51.998q53.846 0 91.924-38.077 38.077-38.078 38.077-91.924 0-53.846-38.077-91.924-38.078-38.077-91.924-38.077-53.846 0-91.924 38.077-38.077 38.078-38.077 91.924 0 53.846 38.077 91.924 38.078 38.077 91.924 38.077Z"/></svg>

<svg xmlns="http://www.w3.org/2000/svg" height="20" viewBox="0 -960 960 960" width="20"><path d="M480-298q-69.03 0-119.21-44.36-50.18-44.37-62.18-111.64H142q-11.05 0-18.52-7.42-7.48-7.42-7.48-18.38 0-10.97 7.48-18.58Q130.95-506 142-506h156.61q12-67.27 62.18-111.64Q410.97-662 480-662t119.4 44.36q50.38 44.37 61.99 111.64H818q11.05 0 18.52 7.42 7.48 7.42 7.48 18.38 0 10.97-7.48 18.58Q829.05-454 818-454H661.39q-11.61 67.27-61.99 111.64Q549.03-298 480-298Zm0-52q53.85 0 91.92-38.08Q610-426.15 610-480t-38.08-91.92Q533.85-610 480-610t-91.92 38.08Q350-533.85 350-480t38.08 91.92Q426.15-350 480-350Z"/></svg>
